X:47
T:Connor Dunn's
R:Reel
D:Martin Hayes- Martin Hayes
S:Martin Hayes, Mike Long
Z:Transcription, chords:Mike Long
M:C|
L:1/8
K:F
"F"A2GF cFFG|"F"~A2GF "(Bb)"~G2FG|"C"EGCE Gfed|"Bb"~c2BG "C"AGFG|
"F"A2GF cFFG|"F"~A2GF "(Bb)"~G2FG|"C"EGCE Gfed|[1 "Bb"~c2BG "F"AFFG:|[2 "Bb"~c2BG "F"F2 z2|]
"C"egge cdeg|"C"cdeg "Bb"{cd}cBcd|"C"ec{a}ge cdec|"Bb"df{g}fe "F"f3 g|
"C"eggf eggf|"C"eggf "Bb"egcg|"C"egga bagf|[1 "Bb"efge "F"f3 g:|[2 "Bb"efge "F"f c-c B|]
